ui/StatusQ/src/assets/img/icons/show.svg

<svg fill="none" height="24" viewBox="0 0 24 24" width="24" xmlns="http://www.w3.org/2000/svg"><g clip-rule="evenodd" fill="#000" fill-rule="evenodd"><path d="m16 12c0 2.2091-1.7909 4-4 4-2.20914 0-4-1.7909-4-4 0-2.20914 1.79086-4 4-4 2.2091 0 4 1.79086 4 4zm-1.5 0c0 1.3807-1.1193 2.5-2.5 2.5s-2.5-1.1193-2.5-2.5 1.1193-2.5 2.5-2.5 2.5 1.1193 2.5 2.5z"/><path d="m2.30102 12.4833c1.03483 1.5838 4.66222 6.5167 9.69898 6.5167 5.0368 0 8.6642-4.9329 9.6991-6.5167.1936-.2965.1936-.6701 0-.9666-1.0349-1.58377-4.6623-6.5167-9.6991-6.5167-5.03676 0-8.66415 4.93293-9.69898 6.5167-.19368.2965-.19368.6701 0 .9666zm9.69898 5.0167c-2.0172 0-3.84676-.9912-5.37269-2.3022-.80303-.6899-1.48262-1.4353-2.0153-2.0926-.5236-.6462-.5236-1.5642 0-2.2104.53268-.6573 1.21227-1.40268 2.0153-2.09261 1.52592-1.31104 3.35549-2.30219 5.37269-2.30219 2.0173 0 3.8469.99116 5.3728 2.30219.803.68993 1.4826 1.43531 2.0153 2.09261.5236.6462.5236 1.5642 0 2.2104-.5327.6573-1.2123 1.4027-2.0153 2.0926-1.5259 1.311-3.3555 2.3022-5.3728 2.3022z"/></g></svg>

<svg width="24" height="24" viewBox="0 0 24 24" fill="none" xmlns="http://www.w3.org/2000/svg">
<path fill-rule="evenodd" clip-rule="evenodd" d="M16 12C16 14.2091 14.2091 16 12 16C9.79086 16 8 14.2091 8 12C8 9.79086 9.79086 8 12 8C14.2091 8 16 9.79086 16 12ZM14.5 12C14.5 13.3807 13.3807 14.5 12 14.5C10.6193 14.5 9.5 13.3807 9.5 12C9.5 10.6193 10.6193 9.5 12 9.5C13.3807 9.5 14.5 10.6193 14.5 12Z" fill="black"/>
<path fill-rule="evenodd" clip-rule="evenodd" d="M2.30102 12.4833C3.33585 14.0671 6.96324 19 12 19C17.0368 19 20.6642 14.0671 21.6991 12.4833C21.8927 12.1868 21.8927 11.8132 21.6991 11.5167C20.6642 9.93293 17.0368 5 12 5C6.96324 5 3.33585 9.93293 2.30102 11.5167C2.10734 11.8132 2.10734 12.1868 2.30102 12.4833ZM12 17.5C9.9828 17.5 8.15324 16.5088 6.62731 15.1978C5.82428 14.5079 5.14469 13.7625 4.61201 13.1052C4.08841 12.459 4.08841 11.541 4.61201 10.8948C5.14469 10.2375 5.82428 9.49212 6.62731 8.80219C8.15323 7.49115 9.9828 6.5 12 6.5C14.0173 6.5 15.8469 7.49116 17.3728 8.80219C18.1758 9.49212 18.8554 10.2375 19.3881 10.8948C19.9117 11.541 19.9117 12.459 19.3881 13.1052C18.8554 13.7625 18.1758 14.5079 17.3728 15.1978C15.8469 16.5088 14.0173 17.5 12 17.5Z" fill="black"/>
</svg>
